bee-flower.svg

<svg fill="currentColor" viewBox="0 0 24 24"><path d="M11.6 13v-.1l-.3-.3h-.1L9.6 12c.4-.3.8-.5 1.3-.5s1 .2 1.4.6.6.8.6 1.3-.1.9-.5 1.3zm-1.9 6.3c-.3-1-.1-2.2.7-3.8l1.2 3.1c.2.6 0 1-.6 1.3s-1 .1-1.3-.6m-5.6-6.2q.3-.9 1.2-.6l3.2 1.2c-1.6.8-2.8 1-3.8.7-.6-.3-.8-.7-.6-1.3m7.9-5h-1v1.4h-.4c-1.1 0-2 .4-2.8 1.2l-.4.6-1.4-.8c-.3-.1-.6-.1-1-.1-.6 0-1.2.2-1.7.6s-.9.8-1.1 1.4c-.2.7-.2 1.3 0 2 .3.7.6 1.2 1.1 1.5-.4 1.5-.1 2.8 1 3.9.8.8 1.7 1.2 2.8 1.2.5 0 .8 0 1.1-.1.6.8 1.4 1.3 2.4 1.3.3 0 .7 0 1-.1.6-.2 1-.6 1.4-1.1.4-.6.6-1.1.6-1.7 0-.4 0-.7-.1-1l-.6-1.4.6-.4c.8-.8 1.2-1.9 1.1-3.1H16v-1h-1.6q-.6-1.8-2.4-2.4zm5.3-1.3c-.2-.2-.3-.5-.3-.7 0-.3.1-.5.3-.7s.4-.3.7-.3.5.1.7.3c.2.1.3.4.3.7s-.1.5-.3.7-.4.2-.7.2-.5 0-.7-.2m3.4-2.7h-1.1l-.3-.9c-.2-.7-.6-1-1.3-1s-1.2.3-1.3 1l-.3.9h-1.1c-.6 0-1 .3-1.3.9q-.3.9.6 1.5l.9.5-.4 1.2c-.2.4-.1.8.1 1.2.3.4.6.6 1.1.6q.6 0 .9-.3l.8-.6.8.7c.2.1.5.2.9.2.5 0 .8-.2 1.1-.6.2-.4.3-.8.1-1.2L20.5 7l.8-.5q.9-.6.6-1.5c-.2-.7-.6-.9-1.2-.9"/></svg>

<svg  viewBox="0 0 24 24" fill="currentColor"><path  d="M11.6 13V12.9L11.3 12.6H11.2L9.6 12C10 11.7 10.4 11.5 10.9 11.5C11.4 11.5 11.9 11.7 12.3 12.1C12.7 12.5 12.9 12.9 12.9 13.4C12.9 13.9 12.8 14.3 12.4 14.7L11.6 13M9.7 19.3C9.4 18.3 9.6 17.1 10.4 15.5L11.6 18.6C11.8 19.2 11.6 19.6 11 19.9C10.4 20.2 10 20 9.7 19.3M4.1 13.1C4.3 12.5 4.7 12.3 5.3 12.5L8.5 13.7C6.9 14.5 5.7 14.7 4.7 14.4C4.1 14.1 3.9 13.7 4.1 13.1M12 8.1H11V9.5H10.6C9.5 9.5 8.6 9.9 7.8 10.7L7.4 11.3L6 10.5C5.7 10.4 5.4 10.4 5 10.4C4.4 10.4 3.8 10.6 3.3 11S2.4 11.8 2.2 12.4C2 13.1 2 13.7 2.2 14.4C2.5 15.1 2.8 15.6 3.3 15.9C2.9 17.4 3.2 18.7 4.3 19.8C5.1 20.6 6 21 7.1 21C7.6 21 7.9 21 8.2 20.9C8.8 21.7 9.6 22.2 10.6 22.2C10.9 22.2 11.3 22.2 11.6 22.1C12.2 21.9 12.6 21.5 13 21C13.4 20.4 13.6 19.9 13.6 19.3C13.6 18.9 13.6 18.6 13.5 18.3L12.9 16.9L13.5 16.5C14.3 15.7 14.7 14.6 14.6 13.4H16V12.4H14.4C14 11.2 13.2 10.4 12 10V8.1M17.3 6.8C17.1 6.6 17 6.3 17 6.1C17 5.8 17.1 5.6 17.3 5.4C17.5 5.2 17.7 5.1 18 5.1S18.5 5.2 18.7 5.4C18.9 5.5 19 5.8 19 6.1C19 6.4 18.9 6.6 18.7 6.8C18.5 7 18.3 7 18 7S17.5 7 17.3 6.8M20.7 4.1H19.6L19.3 3.2C19.1 2.5 18.7 2.2 18 2.2C17.3 2.2 16.8 2.5 16.7 3.2L16.4 4.1H15.3C14.7 4.1 14.3 4.4 14 5C13.8 5.6 14 6.1 14.6 6.5L15.5 7L15.1 8.2C14.9 8.6 15 9 15.2 9.4C15.5 9.8 15.8 10 16.3 10C16.7 10 17 9.9 17.2 9.7L18 9.1L18.8 9.8C19 9.9 19.3 10 19.7 10C20.2 10 20.5 9.8 20.8 9.4C21 9 21.1 8.6 20.9 8.2L20.5 7L21.3 6.5C21.9 6.1 22.1 5.6 21.9 5C21.7 4.3 21.3 4.1 20.7 4.1Z"/></svg>
